symbolic/64x64/apps/caja-actions.svg

<svg xmlns="http://www.w3.org/2000/svg" width="64" height="64" version="1">
 <g>
  <rect style="fill:#5895dc" width="48" height="34" x="8" y="3" rx="2.5" ry="2.5"/>
  <rect style="opacity:0.1" width="48" height="34" x="8" y="8" rx="2.5" ry="2.5"/>
  <rect style="fill:#89e058" width="48" height="34" x="8" y="9" rx="2.5" ry="2.5"/>
  <rect style="opacity:0.1" width="48" height="34" x="8" y="14" rx="2.5" ry="2.5"/>
  <rect style="fill:#ffcd54" width="48" height="34" x="8" y="15" rx="2.5" ry="2.5"/>
  <rect style="opacity:0.2" width="56" height="40" x="4" y="22" rx="3" ry="3"/>
  <rect style="fill:#8e8e8e" width="56" height="40" x="4" y="21" rx="3" ry="3"/>
  <rect style="opacity:0.2" width="20" height="6" x="22" y="38" rx="2" ry="2"/>
  <rect style="fill:#ececec" width="20" height="6" x="22" y="37" rx="2" ry="2"/>
  <path style="fill:#ffffff;opacity:0.1" d="M 10.5 3 C 9.115 3 8 4.115 8 5.5 L 8 6.5 C 8 5.115 9.115 4 10.5 4 L 53.5 4 C 54.885 4 56 5.115 56 6.5 L 56 5.5 C 56 4.115 54.885 3 53.5 3 L 10.5 3 z"/>
  <path style="fill:#ffffff;opacity:0.1" d="M 10.5,9 C 9.115,9 8,10.115 8,11.5 V 12.5 C 8,11.115 9.115,10 10.5,10 H 53.5 C 54.885,10 56,11.115 56,12.5 V 11.5 C 56,10.115 54.885,9 53.5,9 Z"/>
  <path style="fill:#ffffff;opacity:0.1" d="M 10.5,15 C 9.115,15 8,16.115 8,17.5 V 18.5 C 8,17.115 9.115,16 10.5,16 H 53.5 C 54.885,16 56,17.115 56,18.5 V 17.5 C 56,16.115 54.885,15 53.5,15 Z"/>
 </g>
 <g>
  <circle style="opacity:0.2" cx="48" cy="47" r="16"/>
  <circle style="fill:#6ec149" cx="48" cy="46" r="16"/>
  <path style="fill:#ffffff" d="m 46,38 -0.1764,2.1072 a 6.2858,6.2858 0 0 0 -1.83704,1.06252 l -1.91518,-0.9018 -2,3.4642 1.73882,1.2076 a 6.2858,6.2858 0 0 0 -0.096,1.06026 6.2858,6.2858 0 0 0 0.0914,1.06474 l -1.73438,1.20312 2,3.4642 1.91072,-0.89956 a 6.2858,6.2858 0 0 0 1.8415,1.0558 l 0.1764,2.1116 4,0 0.1764,-2.1072 a 6.2858,6.2858 0 0 0 1.83708,-1.06252 l 1.91516,0.9018 2,-3.4642 -1.73884,-1.2076 a 6.2858,6.2858 0 0 0 0.096,-1.06026 6.2858,6.2858 0 0 0 -0.0914,-1.06474 l 1.73438,-1.20312 -2,-3.4642 -1.91072,0.89956 a 6.2858,6.2858 0 0 0 -1.842,-1.056 l -0.176,-2.112 -4,0 z m 2,5.7144 a 2.2858,2.2858 0 0 1 2.286,2.286 A 2.2858,2.2858 0 0 1 48,48.2864 2.2858,2.2858 0 0 1 45.714,46.0004 2.2858,2.2858 0 0 1 48,43.7144 Z"/>
 </g>
</svg>

<svg xmlns="http://www.w3.org/2000/svg" width="64" height="64" version="1"><rect style="fill:#5895dc" width="48" height="34" x="8" y="3" rx="2.5" ry="2.5"/><rect style="opacity:.1" width="48" height="34" x="8" y="8" rx="2.5" ry="2.5"/><rect style="fill:#89e058" width="48" height="34" x="8" y="9" rx="2.5" ry="2.5"/><rect style="opacity:.1" width="48" height="34" x="8" y="14" rx="2.5" ry="2.5"/><rect style="fill:#ffcd54" width="48" height="34" x="8" y="15" rx="2.5" ry="2.5"/><rect style="opacity:.2" width="56" height="40" x="4" y="22" rx="3" ry="3"/><rect style="fill:#8e8e8e" width="56" height="40" x="4" y="21" rx="3" ry="3"/><rect style="opacity:.2" width="20" height="6" x="22" y="38" rx="2" ry="2"/><rect style="fill:#ececec" width="20" height="6" x="22" y="37" rx="2" ry="2"/><path style="fill:#fff;opacity:.1" d="M10.5 3A2.495 2.495 0 0 0 8 5.5v1C8 5.115 9.115 4 10.5 4h43C54.885 4 56 5.115 56 6.5v-1C56 4.115 54.885 3 53.5 3h-43zM10.5 9A2.495 2.495 0 0 0 8 11.5v1c0-1.385 1.115-2.5 2.5-2.5h43c1.385 0 2.5 1.115 2.5 2.5v-1c0-1.385-1.115-2.5-2.5-2.5zM10.5 15A2.495 2.495 0 0 0 8 17.5v1c0-1.385 1.115-2.5 2.5-2.5h43c1.385 0 2.5 1.115 2.5 2.5v-1c0-1.385-1.115-2.5-2.5-2.5z"/><g><circle style="opacity:.2" cx="48" cy="47" r="16"/><circle style="fill:#6ec149" cx="48" cy="46" r="16"/><path style="fill:#fff" d="m46 38-.176 2.107a6.286 6.286 0 0 0-1.837 1.063l-1.916-.902-2 3.464 1.74 1.208a6.286 6.286 0 0 0-.097 1.06 6.286 6.286 0 0 0 .092 1.065l-1.735 1.203 2 3.464 1.91-.9a6.286 6.286 0 0 0 1.842 1.056L46 54h4l.176-2.107a6.286 6.286 0 0 0 1.837-1.063l1.915.902 2-3.464-1.738-1.208a6.286 6.286 0 0 0 .096-1.06 6.286 6.286 0 0 0-.092-1.065l1.735-1.203-2-3.464-1.911.9a6.286 6.286 0 0 0-1.842-1.057L50 38h-4zm2 5.714A2.286 2.286 0 0 1 50.286 46 2.286 2.286 0 0 1 48 48.286 2.286 2.286 0 0 1 45.714 46 2.286 2.286 0 0 1 48 43.714z"/></g></svg>
